tela-icon-theme/src/16/places/folder-unlocked.svg

<svg width="16" height="16" version="1.1" viewBox="0 0 16 16" xmlns="http://www.w3.org/2000/svg">
 <defs>
  <style id="current-color-scheme" type="text/css">.ColorScheme-Text { color:#727272; } .ColorScheme-Highlight { color:#5294e2; }</style>
 </defs>
 <path class="ColorScheme-Text" d="m8 0c-2.216 0-4 1.8215-4 4.0625v0.9375h2v-1c0-1.109 0.892-2 2-2s2 0.891 2 2v4h-7c-0.554 0-1 0.446-1 1v6c0 0.554 0.446 1 1 1h10c0.554 0 1-0.446 1-1v-6c0-0.554-0.446-1-1-1h-1v-3.9375c0-2.24-1.784-4.0625-4-4.0625zm-4 10h8v4h-8v-4z" fill="currentColor"/>
</svg>

<svg xmlns="http://www.w3.org/2000/svg" width="16" height="16" version="1.1" viewBox="0 0 16 16">
 <defs>
  <style id="current-color-scheme" type="text/css">
   .ColorScheme-Text { color:#727272; } .ColorScheme-Highlight { color:#5294e2; }
  </style>
 </defs>
 <path style="fill:currentColor" class="ColorScheme-Text" d="M 8,0 C 5.784,0 4,1.821 4,4.062 V 5 H 6 V 4 C 6,2.891 6.892,2 8,2 9.108,2 10,2.891 10,4 V 8 H 8 3 C 2.446,8 2,8.446 2,9 V 15 C 2,15.554 2.446,16 3,16 H 13 C 13.554,16 14,15.554 14,15 V 9 C 14,8.446 13.554,8 13,8 H 12 V 4.062 C 12,1.822 10.216,0 8,0 Z"/>
</svg>
